X:76
T:?
R:slide
D:Jackie Daly & Seamus Creagh
Z:id:hn-slide-58
M:6/8
K:D
FGF F2E|D3 D2E|FGF F2D|E3 E2F|
GFG B2G|FGF A2F|EDE F2E|1 D3 D2E:|2 D3 D3||
|:ABd A2F|A3 A2F|ABd A2F|G3 G2D|
GFG B2G|FGF A2F|EDE F2E|1 D3 D3:|2 D3 D2E||


